X:1
T:Every-Body's -- Hornpipe
Z:Bob Puckette <bpuckette:msn.com> 2003-3-10
R:hornpipe
B:Cole's 1000 Fiddle Tunes
M:C|
L:1/8
K:C
(ugf)|e>cB>c G>cE>c|G>ce>g f>ed>c|B>dg>f e>g"4"c'>g|a>fd>g f>ed>c|
e>cB>c G>ce>g|a>fd>B G>Bd>e|f>ag>f e>dc>B|c2e2c2:|
|:(uGF)|E>Gc>G e>cG>E|D>FB>G d>BG>F|E>Gc>B A>GF>E|D>G,B,>D G>FE>D|
E>Gc>G e>cG>E|D>FB>F d>BG>F|E>ag>f e>dc>B|c2e2c2:|
